svg/Tango/actions/view-refresh.svg

<?xml version="1.0" encoding="UTF-8" standalone="no"?>
<!-- Created with Inkscape (http://www.inkscape.org/) -->
<svg
   xmlns:dc="http://purl.org/dc/elements/1.1/"
   xmlns:cc="http://creativecommons.org/ns#"
   xmlns:rdf="http://www.w3.org/1999/02/22-rdf-syntax-ns#"
   xmlns:svg="http://www.w3.org/2000/svg"
   xmlns="http://www.w3.org/2000/svg"
   xmlns:xlink="http://www.w3.org/1999/xlink"
   xmlns:sodipodi="http://sodipodi.sourceforge.net/DTD/sodipodi-0.dtd"
   xmlns:inkscape="http://www.inkscape.org/namespaces/inkscape"
   inkscape:export-ydpi="90.000000"
   inkscape:export-xdpi="90.000000"
   inkscape:export-filename="/home/jimmac/Desktop/wi-fi.png"
   width="48px"
   height="48px"
   id="svg11300"
   sodipodi:version="0.32"
   inkscape:version="0.46"
   sodipodi:docbase="/home/jimmac/src/cvs/tango-icon-theme/scalable/actions"
   sodipodi:docname="view-refresh.svg"
   inkscape:output_extension="org.inkscape.output.svg.inkscape">
  <defs
     id="defs3">
    <inkscape:perspective
       sodipodi:type="inkscape:persp3d"
       inkscape:vp_x="0 : 24 : 1"
       inkscape:vp_y="0 : 1000 : 0"
       inkscape:vp_z="48 : 24 : 1"
       inkscape:persp3d-origin="24 : 16 : 1"
       id="perspective58" />
    <linearGradient
       inkscape:collect="always"
       id="linearGradient2690">
      <stop
         style="stop-color:#c4d7eb;stop-opacity:1;"
         offset="0"
         id="stop2692" />
      <stop
         style="stop-color:#c4d7eb;stop-opacity:0;"
         offset="1"
         id="stop2694" />
    </linearGradient>
    <linearGradient
       id="linearGradient2682">
      <stop
         style="stop-color:#3977c3;stop-opacity:1;"
         offset="0"
         id="stop2684" />
      <stop
         style="stop-color:#89aedc;stop-opacity:0;"
         offset="1"
         id="stop2686" />
    </linearGradient>
    <linearGradient
       id="linearGradient2402">
      <stop
         style="stop-color:#729fcf;stop-opacity:1;"
         offset="0"
         id="stop2404" />
      <stop
         style="stop-color:#528ac5;stop-opacity:1;"
         offset="1"
         id="stop2406" />
    </linearGradient>
    <linearGradient
       id="linearGradient2380">
      <stop
         style="stop-color:#b9cfe7;stop-opacity:1"
         offset="0"
         id="stop2382" />
      <stop
         style="stop-color:#729fcf;stop-opacity:1"
         offset="1"
         id="stop2384" />
    </linearGradient>
    <linearGradient
       inkscape:collect="always"
       id="linearGradient2871">
      <stop
         style="stop-color:#3465a4;stop-opacity:1;"
         offset="0"
         id="stop2873" />
      <stop
         style="stop-color:#3465a4;stop-opacity:1"
         offset="1"
         id="stop2875" />
    </linearGradient>
    <linearGradient
       inkscape:collect="always"
       id="linearGradient2847">
      <stop
         style="stop-color:#3465a4;stop-opacity:1;"
         offset="0"
         id="stop2849" />
      <stop
         style="stop-color:#3465a4;stop-opacity:0;"
         offset="1"
         id="stop2851" />
    </linearGradient>
    <linearGradient
       id="linearGradient2831">
      <stop
         style="stop-color:#3465a4;stop-opacity:1;"
         offset="0"
         id="stop2833" />
      <stop
         id="stop2855"
         offset="0.33333334"
         style="stop-color:#5b86be;stop-opacity:1;" />
      <stop
         style="stop-color:#83a8d8;stop-opacity:0;"
         offset="1"
         id="stop2835" />
    </linearGradient>
    <linearGradient
       inkscape:collect="always"
       id="linearGradient2797">
      <stop
         style="stop-color:#ffffff;stop-opacity:1;"
         offset="0"
         id="stop2799" />
      <stop
         style="stop-color:#ffffff;stop-opacity:0;"
         offset="1"
         id="stop2801" />
    </linearGradient>
    <linearGradient
       inkscape:collect="always"
       id="linearGradient8662">
      <stop
         style="stop-color:#000000;stop-opacity:1;"
         offset="0"
         id="stop8664" />
      <stop
         style="stop-color:#000000;stop-opacity:0;"
         offset="1"
         id="stop8666" />
    </linearGradient>
    <linearGradient
       inkscape:collect="always"
       xlink:href="#linearGradient2831"
       id="linearGradient1486"
       gradientUnits="userSpaceOnUse"
       gradientTransform="translate(0.465413,-0.277593)"
       x1="13.478554"
       y1="10.612206"
       x2="15.419417"
       y2="19.115122" />
    <linearGradient
       inkscape:collect="always"
       xlink:href="#linearGradient2847"
       id="linearGradient1488"
       gradientUnits="userSpaceOnUse"
       gradientTransform="matrix(-1,0,0,-1,47.52791,45.84741)"
       x1="37.128052"
       y1="29.729605"
       x2="37.065414"
       y2="26.194071" />
    <linearGradient
       inkscape:collect="always"
       xlink:href="#linearGradient2797"
       id="linearGradient1491"
       gradientUnits="userSpaceOnUse"
       x1="5.9649176"
       y1="26.048164"
       x2="52.854097"
       y2="26.048164" />
    <linearGradient
       inkscape:collect="always"
       xlink:href="#linearGradient2797"
       id="linearGradient1493"
       gradientUnits="userSpaceOnUse"
       x1="5.9649176"
       y1="26.048164"
       x2="52.854097"
       y2="26.048164" />
    <linearGradient
       inkscape:collect="always"
       xlink:href="#linearGradient2871"
       id="linearGradient1501"
       gradientUnits="userSpaceOnUse"
       x1="46.834816"
       y1="45.264122"
       x2="45.380436"
       y2="50.939667" />
    <radialGradient
       inkscape:collect="always"
       xlink:href="#linearGradient8662"
       id="radialGradient1503"
       gradientUnits="userSpaceOnUse"
       gradientTransform="matrix(1,0,0,0.536723,-9.680928e-14,16.87306)"
       cx="24.837126"
       cy="36.421127"
       fx="24.837126"
       fy="36.421127"
       r="15.644737" />
    <linearGradient
       inkscape:collect="always"
       xlink:href="#linearGradient2380"
       id="linearGradient2386"
       x1="62.513836"
       y1="36.061237"
       x2="15.984863"
       y2="20.60858"
       gradientUnits="userSpaceOnUse" />
    <linearGradient
       inkscape:collect="always"
       xlink:href="#linearGradient2402"
       id="linearGradient2408"
       x1="18.935766"
       y1="23.667896"
       x2="53.588622"
       y2="26.649362"
       gradientUnits="userSpaceOnUse" />
    <linearGradient
       inkscape:collect="always"
       xlink:href="#linearGradient2682"
       id="linearGradient2688"
       x1="36.713837"
       y1="31.455952"
       x2="37.124462"
       y2="24.842253"
       gradientUnits="userSpaceOnUse" />
    <linearGradient
       inkscape:collect="always"
       xlink:href="#linearGradient2690"
       id="linearGradient2696"
       x1="32.647972"
       y1="30.748846"
       x2="37.124462"
       y2="24.842253"
       gradientUnits="userSpaceOnUse" />
  </defs>
  <sodipodi:namedview
     stroke="#3465a4"
     fill="#729fcf"
     id="base"
     pagecolor="#ffffff"
     bordercolor="#666666"
     borderopacity="0.25490196"
     inkscape:pageopacity="0.0"
     inkscape:pageshadow="2"
     inkscape:zoom="5.6568542"
     inkscape:cx="2.4438651"
     inkscape:cy="18.153347"
     inkscape:current-layer="layer1"
     showgrid="false"
     inkscape:grid-bbox="true"
     inkscape:document-units="px"
     inkscape:showpageshadow="false"
     inkscape:window-width="891"
     inkscape:window-height="818"
     inkscape:window-x="0"
     inkscape:window-y="30" />
  <metadata
     id="metadata4">
    <rdf:RDF>
      <cc:Work
         rdf:about="">
        <dc:format>image/svg+xml</dc:format>
        <dc:type
           rdf:resource="http://purl.org/dc/dcmitype/StillImage" />
        <dc:creator>
          <cc:Agent>
            <dc:title>Jakub Steiner</dc:title>
          </cc:Agent>
        </dc:creator>
        <dc:source>http://jimmac.musichall.cz</dc:source>
        <cc:license
           rdf:resource="http://creativecommons.org/licenses/publicdomain/" />
        <dc:title>View Refresh</dc:title>
        <dc:subject>
          <rdf:Bag>
            <rdf:li>reload</rdf:li>
            <rdf:li>refresh</rdf:li>
            <rdf:li>view</rdf:li>
          </rdf:Bag>
        </dc:subject>
      </cc:Work>
      <cc:License
         rdf:about="http://creativecommons.org/licenses/publicdomain/">
        <cc:permits
           rdf:resource="http://creativecommons.org/ns#Reproduction" />
        <cc:permits
           rdf:resource="http://creativecommons.org/ns#Distribution" />
        <cc:permits
           rdf:resource="http://creativecommons.org/ns#DerivativeWorks" />
      </cc:License>
    </rdf:RDF>
  </metadata>
  <g
     id="layer1"
     inkscape:label="Layer 1"
     inkscape:groupmode="layer">
    <path
       transform="matrix(-1.489736,0,0,-1.001252,61.20865,75.2819)"
       d="M 40.481863 36.421127 A 15.644737 8.3968935 0 1 1  9.1923885,36.421127 A 15.644737 8.3968935 0 1 1  40.481863 36.421127 z"
       sodipodi:ry="8.3968935"
       sodipodi:rx="15.644737"
       sodipodi:cy="36.421127"
       sodipodi:cx="24.837126"
       id="path8660"
       style="opacity:0.38333333;color:#000000;fill:url(#radialGradient1503);fill-opacity:1;fill-rule:evenodd;stroke:none;stroke-width:1;stroke-linecap:butt;stroke-linejoin:miter;marker:none;marker-start:none;marker-mid:none;marker-end:none;stroke-miterlimit:10;stroke-dasharray:none;stroke-dashoffset:0;stroke-opacity:1;visibility:visible;display:inline;overflow:visible"
       sodipodi:type="arc"
       inkscape:r_cx="true"
       inkscape:r_cy="true" />
    <path
       style="color:#000000;fill:url(#linearGradient1486);fill-opacity:1;fill-rule:nonzero;stroke:url(#linearGradient1488);stroke-width:0.99999958;stroke-linecap:butt;stroke-linejoin:miter;marker:none;marker-start:none;marker-mid:none;marker-end:none;stroke-miterlimit:4;stroke-dasharray:none;stroke-dashoffset:0;stroke-opacity:1;visibility:visible;display:block;overflow:visible"
       d="M 20.152913,10.409904 C 20.152913,10.409904 11.215413,9.784904 13.965413,20.284904 L 6.2779132,20.284904 C 6.2779132,20.284904 6.7779132,8.409904 20.152913,10.409904 z "
       id="path2865"
       inkscape:r_cx="true"
       inkscape:r_cy="true"
       sodipodi:nodetypes="cccc" />
    <g
       id="g1878"
       transform="matrix(-0.579051,-0.489228,-0.489228,0.579051,56.91585,13.37137)"
       inkscape:r_cx="true"
       inkscape:r_cy="true"
       style="fill:url(#linearGradient2386);fill-opacity:1.0;stroke:#3465a4;stroke-opacity:1">
      <path
         sodipodi:nodetypes="ccccccc"
         id="path1880"
         d="M 44.306783,50.229694 C 62.821497,35.818859 49.664587,13.411704 22.462411,12.49765 L 22.113843,3.1515478 L 7.6245439,20.496754 L 22.714328,33.219189 C 22.714328,33.219189 22.462411,23.337969 22.462411,23.337969 C 41.292171,24.336946 55.444038,37.409698 44.306783,50.229694 z "
         style="opacity:1;color:#000000;fill:url(#linearGradient2386);fill-opacity:1.0;fill-rule:nonzero;stroke:url(#linearGradient1501);stroke-width:1.31916928;stroke-linecap:butt;stroke-linejoin:miter;marker:none;marker-start:none;marker-mid:none;marker-end:none;stroke-miterlimit:4;stroke-dasharray:none;stroke-dashoffset:0;stroke-opacity:1;visibility:visible;display:block;overflow:visible"
         inkscape:r_cx="true"
         inkscape:r_cy="true" />
    </g>
    <path
       sodipodi:nodetypes="cccc"
       inkscape:r_cy="true"
       inkscape:r_cx="true"
       id="path2839"
       d="M 28.375,33.4375 C 28.375,33.4375 37.3125,34.0625 34.5625,23.5625 L 42.338388,23.5625 C 42.338388,25.065102 41.75,35.4375 28.375,33.4375 z "
       style="color:#000000;fill:url(#linearGradient2696);fill-opacity:1.0;fill-rule:nonzero;stroke:url(#linearGradient2688);stroke-width:0.99999958;stroke-linecap:butt;stroke-linejoin:miter;marker:none;marker-start:none;marker-mid:none;marker-end:none;stroke-miterlimit:4;stroke-dasharray:none;stroke-dashoffset:0;stroke-opacity:1;visibility:visible;display:block;overflow:visible" />
    <g
       style="color:#000000;fill:url(#linearGradient2408);fill-opacity:1.0;fill-rule:nonzero;stroke:url(#linearGradient1501);stroke-width:1.31916928;stroke-linecap:butt;stroke-linejoin:miter;marker:none;marker-start:none;marker-mid:none;marker-end:none;stroke-miterlimit:4;stroke-dasharray:none;stroke-dashoffset:0;stroke-opacity:1;visibility:visible;display:block;overflow:visible;opacity:1"
       inkscape:r_cy="true"
       inkscape:r_cx="true"
       transform="matrix(0.579051,0.489228,0.489228,-0.579051,-7.921023,30.53599)"
       id="g2779">
      <path
         inkscape:r_cy="true"
         inkscape:r_cx="true"
         style="opacity:1;color:#000000;fill:url(#linearGradient2408);fill-opacity:1.0;fill-rule:nonzero;stroke:url(#linearGradient1501);stroke-width:1.31916928;stroke-linecap:butt;stroke-linejoin:miter;marker:none;marker-start:none;marker-mid:none;marker-end:none;stroke-miterlimit:4;stroke-dasharray:none;stroke-dashoffset:0;stroke-opacity:1;visibility:visible;display:block;overflow:visible"
         d="M 44.306783,50.229694 C 62.821497,35.818859 49.664587,13.411704 22.462411,12.49765 L 22.399432,3.0690297 L 7.793943,20.424005 L 22.462411,33.006349 C 22.462411,33.006349 22.462411,23.337969 22.462411,23.337969 C 41.292171,24.336946 55.444038,37.409698 44.306783,50.229694 z "
         id="path2781"
         sodipodi:nodetypes="ccccccc" />
    </g>
    <path
       style="opacity:0.27222224;color:#000000;fill:#ffffff;fill-opacity:1;fill-rule:nonzero;stroke:none;stroke-width:0.99999982;stroke-linecap:round;stroke-linejoin:miter;marker:none;marker-start:none;marker-mid:none;marker-end:none;stroke-miterlimit:4;stroke-dasharray:none;stroke-dashoffset:0;stroke-opacity:1;visibility:visible;display:inline;overflow:visible"
       d="M 7.0625,38.1875 L 7.125,23.3125 L 20.0625,22.9375 L 15.673627,28.116317 L 19.540852,30.489516 C 16.540852,32.739516 14.991304,32.911644 13.991304,35.474144 L 11.174446,33.363872 L 7.0625,38.1875 z "
       id="path2791"
       inkscape:r_cx="true"
       inkscape:r_cy="true"
       sodipodi:nodetypes="cccccccc" />
    <g
       id="g2793"
       transform="matrix(0.508536,0.429651,0.429651,-0.508536,-3.973188,30.54119)"
       inkscape:r_cx="true"
       inkscape:r_cy="true"
       style="opacity:0.5;fill:none;fill-opacity:1;stroke:#ffffff;stroke-opacity:1">
      <path
         sodipodi:nodetypes="ccccccc"
         id="path2795"
         d="M 51.090265,45.943705 C 60.210465,30.723955 46.631614,12.20113 19.485058,11.948579 L 19.513464,3.7032834 L 6.5341979,19.296639 L 19.367661,30.26876 C 19.367661,30.26876 19.423281,21.261882 19.423281,21.261882 C 36.951096,21.037973 54.618466,31.365254 51.090265,45.943705 z "
         style="opacity:1;color:#000000;fill:none;fill-opacity:1;fill-rule:nonzero;stroke:url(#linearGradient1493);stroke-width:1.50208926;stroke-linecap:butt;stroke-linejoin:miter;marker:none;marker-start:none;marker-mid:none;marker-end:none;stroke-miterlimit:4;stroke-dasharray:none;stroke-dashoffset:0;stroke-opacity:1;visibility:visible;display:block;overflow:visible"
         inkscape:r_cx="true"
         inkscape:r_cy="true" />
    </g>
    <g
       style="opacity:0.5;fill:none;fill-opacity:1;stroke:#ffffff;stroke-opacity:1"
       inkscape:r_cy="true"
       inkscape:r_cx="true"
       transform="matrix(-0.508536,-0.429651,-0.429651,0.508536,53.049,13.36548)"
       id="g2805">
      <path
         inkscape:r_cy="true"
         inkscape:r_cx="true"
         style="opacity:1;color:#000000;fill:none;fill-opacity:1;fill-rule:nonzero;stroke:url(#linearGradient1491);stroke-width:1.50208926;stroke-linecap:butt;stroke-linejoin:miter;marker:none;marker-start:none;marker-mid:none;marker-end:none;stroke-miterlimit:4;stroke-dasharray:none;stroke-dashoffset:0;stroke-opacity:1;visibility:visible;display:block;overflow:visible"
         d="M 51.389927,46.505946 C 60.510127,31.286196 47.050763,12.432359 19.628482,12.069755 L 19.342824,4.0507204 L 6.3413093,19.379475 L 19.809059,30.764589 C 19.809059,30.764589 19.627294,21.311346 19.627294,21.311346 C 37.872231,21.693318 54.411175,32.236592 51.389927,46.505946 z "
         id="path2807"
         sodipodi:nodetypes="ccccccc" />
    </g>
    <path
       style="opacity:0.27222224;color:#000000;fill:#ffffff;fill-opacity:1;fill-rule:nonzero;stroke:none;stroke-width:0.99999982;stroke-linecap:round;stroke-linejoin:miter;marker:none;marker-start:none;marker-mid:none;marker-end:none;stroke-miterlimit:4;stroke-dasharray:none;stroke-dashoffset:0;stroke-opacity:1;visibility:visible;display:inline;overflow:visible"
       d="M 6.8125,16.5 C 10.405935,6.0587275 23.256282,10.355393 27,12 C 31.175307,12.211475 32.674736,9.164996 36,9 C 21.950264,-0.7899963 7.1875,2.5 6.8125,16.5 z "
       id="path2811"
       inkscape:r_cx="true"
       inkscape:r_cy="true"
       sodipodi:nodetypes="cccc" />
  </g>
</svg>

<svg xmlns="http://www.w3.org/2000/svg" viewBox="0 0 48 48"><defs><linearGradient id="7" x1="36.714" y1="31.456" x2="37.12" y2="24.842" gradientUnits="userSpaceOnUse"><stop stop-color="#3977c3"/><stop offset="1" stop-color="#89aedc" stop-opacity="0"/></linearGradient><linearGradient id="6" x1="18.936" y1="23.668" x2="53.589" y2="26.649" gradientUnits="userSpaceOnUse"><stop stop-color="#729fcf"/><stop offset="1" stop-color="#528ac5"/></linearGradient><linearGradient id="5" x1="62.51" y1="36.06" x2="15.985" y2="20.609" gradientUnits="userSpaceOnUse"><stop stop-color="#b9cfe7"/><stop offset="1" stop-color="#729fcf"/></linearGradient><linearGradient id="8" x1="32.648" y1="30.749" x2="37.12" y2="24.842" gradientUnits="userSpaceOnUse"><stop stop-color="#c4d7eb"/><stop offset="1" stop-color="#c4d7eb" stop-opacity="0"/></linearGradient><linearGradient id="0" gradientUnits="userSpaceOnUse" x1="13.944" y1="10.335" x2="15.885" y2="18.838"><stop stop-color="#3465a4"/><stop offset=".333" stop-color="#5b86be"/><stop offset="1" stop-color="#83a8d8" stop-opacity="0"/></linearGradient><linearGradient id="1" gradientUnits="userSpaceOnUse" x1="10.4" y1="16.12" x2="10.462" y2="19.653"><stop stop-color="#3465a4"/><stop offset="1" stop-color="#3465a4" stop-opacity="0"/></linearGradient><linearGradient id="2" gradientUnits="userSpaceOnUse" x1="5.965" x2="52.854"><stop stop-color="#fff"/><stop offset="1" stop-color="#fff" stop-opacity="0"/></linearGradient><linearGradient id="3" gradientUnits="userSpaceOnUse" x1="46.835" y1="45.26" x2="45.38" y2="50.94"><stop stop-color="#3465a4"/><stop offset="1" stop-color="#3465a4"/></linearGradient><radialGradient id="4" gradientUnits="userSpaceOnUse" gradientTransform="matrix(1 0 0 .53672 0 16.873)" cx="24.837" cy="36.421" r="15.645"><stop/><stop offset="1" stop-opacity="0"/></radialGradient></defs><g color="#000"><path transform="matrix(-1.48974 0 0-1.0013 61.21 75.28)" d="M40.481863 36.421127A15.644737 8.396893 0 1 1 9.192388 36.421127 15.644737 8.396893 0 1 1 40.481863 36.421127" opacity=".383" fill-rule="evenodd" fill="url(#4)"/><path d="m20.15 10.41c0 0-8.938-.625-6.188 9.875h-7.687c0 0 .5-11.875 13.875-9.875z" display="block" fill="url(#0)" stroke="url(#1)"/></g><g fill="url(#5)" stroke="#3465a4"><path d="m44.31 50.23c18.515-14.411 5.358-36.818-21.844-37.732l-.349-9.346-14.489 17.345 15.09 12.722c0 0-.252-9.881-.252-9.881 18.83.999 32.982 14.07 21.844 26.892z" display="block" color="#000" stroke-width="1.319" stroke="url(#3)" transform="matrix(-.57905-.48923-.48923.57905 56.916 13.371)"/></g><g color="#000"><g display="block"><path d="m28.375 33.438c0 0 8.938.625 6.188-9.875h7.776c0 1.503-.588 11.875-13.963 9.875z" fill="url(#8)" stroke="url(#7)"/><g stroke-width="1.319" fill="url(#6)" stroke="url(#3)"><path d="m44.31 50.23c18.515-14.411 5.358-36.818-21.844-37.732l-.063-9.429-14.605 17.355 14.668 12.582c0 0 0-9.668 0-9.668 18.83.999 32.982 14.07 21.844 26.892z" color="#000" stroke-width="1.319" transform="matrix(.57905.48923.48923-.57905-7.921 30.536)"/></g></g><path d="m7.06 38.19l.063-14.875 12.938-.375-4.389 5.179 3.867 2.373c-3 2.25-4.55 2.422-5.55 4.985l-2.817-2.11-4.112 4.824" opacity=".272" display="inline" fill="#fff" stroke="none"/></g><g opacity=".5" fill="none" stroke="#fff"><path d="m51.09 45.944c9.12-15.22-4.459-33.743-31.605-33.995l.028-8.245-12.979 15.593 12.833 10.972c0 0 .056-9.01.056-9.01 17.528-.224 35.2 10.1 31.667 24.682z" opacity="1" display="block" color="#000" stroke-width="1.502" stroke="url(#2)" transform="matrix(.50854.42965.42965-.50854-3.973 30.541)"/></g><g opacity=".5" fill="none" stroke="#fff"><path d="m51.39 46.51c9.12-15.22-4.339-34.07-31.761-34.436l-.286-8.02-13 15.329 13.468 11.385c0 0-.182-9.453-.182-9.453 18.245.382 34.784 10.925 31.763 25.19z" opacity="1" display="block" color="#000" stroke-width="1.502" stroke="url(#2)" transform="matrix(-.50854-.42965-.42965.50854 53.05 13.365)"/></g><path d="m6.813 16.5c3.593-10.441 16.444-6.145 20.19-4.5 4.175.211 5.675-2.835 9-3-14.05-9.79-28.813-6.5-29.19 7.5" opacity=".272" color="#000" fill="#fff" stroke="none"/></svg>
